X: 182110
T: Red Whitehorn (The)
C: Joe Liddy
Z: BB
S: "The Leitrim Fiddler" (Dublin 1981)
L: 1/8
M: 4/4
R: reel
Q: 1/4 = 180
K: G
EF | G2 GF GBdB | G2 BG AGED | G2 GF GBdB | A2 BA GE E2 |
DGGF GBdB | GBAG AE E2 | GABd edge | dBAB GE E2 :|
dggf g2 gB | eg g2 edBc | dg g2 gedB | c2 BA GE E2 |
dggf g2 ag | eaab ag e2 | g2 fg efge | (3ded BG AGFD ||
dggf g2 gd | egfg edBc | dgg2 bgag | edBA GE E2 |
dggf g2 fg | eaab agef | gbaf gedB | AGEF G4 ||
%%%%%%%%%%%%%%%%%%%
